X:7828
T:Vallafield
N:sung by the fairies of Unst, early 19th century
O:England
M:6/8
K:C
G|c2e c2e|ecA A2A|Bcd dBG|Bcd dBG|c2e c2e|ecA A2A|Bcd dBG|c3 c2:|
d|cBA GAB|dBG B2G|cBA GAB|cBA GAB|dBG B2G|dBG B2G|cBA GAB|c3 c2:|


